images/ico_help_step3.svg

<svg width="113" height="113" viewBox="0 0 113 113" fill="none" xmlns="http://www.w3.org/2000/svg">
<path fill-rule="evenodd" clip-rule="evenodd" d="M56.5 113C87.7041 113 113 87.7041 113 56.5C113 25.2959 87.7041 0 56.5 0C25.2959 0 0 25.2959 0 56.5C0 87.7041 25.2959 113 56.5 113ZM56.5 109C85.7711 109 109.5 85.4949 109.5 56.5C109.5 27.5051 85.7711 4 56.5 4C27.2289 4 3.5 27.5051 3.5 56.5C3.5 85.4949 27.2289 109 56.5 109Z" fill="url(#paint0_linear)"/>
<path d="M55.8225 30.5316C54.0714 30.5219 52.3111 30.6844 50.5672 31.0356C36.5072 33.8668 27.3932 47.6152 30.2159 61.7164C33.0387 75.8177 46.7462 84.9803 60.8055 82.1492C74.8654 79.318 83.9794 65.5488 81.1567 51.4469C81.143 51.3807 81.1164 51.3179 81.0784 51.262C81.0405 51.2062 80.9919 51.1583 80.9355 51.1213C80.8791 51.0842 80.816 51.0587 80.7498 51.0461C80.6836 51.0335 80.6155 51.0341 80.5495 51.0479C80.4835 51.0617 80.4209 51.0884 80.3652 51.1265C80.3095 51.1645 80.2618 51.2132 80.2249 51.2698C80.1879 51.3263 80.1625 51.3896 80.1499 51.456C80.1373 51.5225 80.138 51.5907 80.1517 51.6569C82.8676 65.2239 74.1023 78.4173 60.575 81.1409C47.0477 83.8648 33.8949 75.0731 31.1787 61.5057C28.4628 47.9387 37.2282 34.746 50.7555 32.0217C57.4615 30.6713 64.4416 32.1531 70.0387 36.0957C70.0937 36.1329 70.1555 36.159 70.2205 36.1723C70.2855 36.1855 70.3525 36.1859 70.4176 36.1732C70.4828 36.1605 70.5448 36.1351 70.6001 36.0984C70.6555 36.0617 70.703 36.0144 70.7402 35.9592C70.7773 35.9041 70.8032 35.8421 70.8164 35.7769C70.8297 35.7117 70.83 35.6445 70.8174 35.5792C70.8047 35.5139 70.7794 35.4517 70.7428 35.3962C70.7062 35.3407 70.659 35.2929 70.604 35.2557C66.2375 32.1799 61.0753 30.5597 55.8225 30.5308L55.8225 30.5316ZM82.7485 35.2565C82.6372 35.2713 82.534 35.3231 82.4554 35.4035L55.2996 61.9684L45.8781 52.7284C45.7837 52.6337 45.6556 52.5805 45.5221 52.5805C45.3886 52.5805 45.2606 52.6337 45.1662 52.7284C45.0718 52.8231 45.0188 52.9515 45.0188 53.0854C45.0188 53.2193 45.0718 53.3477 45.1662 53.4424L54.9442 63.06C54.9909 63.107 55.0463 63.1443 55.1074 63.1697C55.1685 63.1952 55.234 63.2082 55.3001 63.2082C55.3662 63.2082 55.4317 63.1952 55.4928 63.1697C55.5539 63.1443 55.6094 63.107 55.656 63.06L83.1468 36.1169C83.2205 36.044 83.27 35.95 83.2885 35.8478C83.3069 35.7456 83.2935 35.6402 83.25 35.546C83.2064 35.4518 83.1349 35.3734 83.0453 35.3214C82.9556 35.2695 82.8521 35.2466 82.749 35.2559L82.7485 35.2565Z" fill="url(#paint1_linear)" stroke="url(#paint2_linear)" stroke-width="2.7"/>
<defs>
<linearGradient id="paint0_linear" x1="56.5" y1="0" x2="35.64" y2="118.375" gradientUnits="userSpaceOnUse">
<stop stop-color="#50CFFA"/>
<stop offset="0.999201" stop-color="#52A2ED"/>
</linearGradient>
<linearGradient id="paint1_linear" x1="56.4998" y1="30.5308" x2="47.1234" y2="85.2312" gradientUnits="userSpaceOnUse">
<stop stop-color="#50CFFA"/>
<stop offset="0.999201" stop-color="#52A2ED"/>
</linearGradient>
<linearGradient id="paint2_linear" x1="56.4998" y1="30.5308" x2="56.4998" y2="82.6627" gradientUnits="userSpaceOnUse">
<stop stop-color="#50CFFA"/>
<stop offset="1" stop-color="#51A5EE"/>
</linearGradient>
</defs>
</svg>

<svg width="113" height="113" fill="none" xmlns="http://www.w3.org/2000/svg"><path fill-rule="evenodd" clip-rule="evenodd" d="M56.5 113c31.204 0 56.5-25.296 56.5-56.5S87.704 0 56.5 0 0 25.296 0 56.5 25.296 113 56.5 113zm0-4c29.271 0 53-23.505 53-52.5S85.771 4 56.5 4s-53 23.505-53 52.5 23.729 52.5 53 52.5z" fill="url(#paint0_linear)"/><path d="M55.822 30.532a25.88 25.88 0 00-5.255.504c-14.06 2.83-23.174 16.58-20.351 30.68 2.823 14.102 16.53 23.264 30.59 20.433 14.06-2.831 23.173-16.6 20.35-30.702a.514.514 0 10-1.004.21c2.716 13.567-6.05 26.76-19.577 29.484-13.527 2.724-26.68-6.068-29.396-19.635-2.716-13.567 6.05-26.76 19.576-29.484a24.957 24.957 0 0119.284 4.074.506.506 0 10.565-.84 25.9 25.9 0 00-14.782-4.725h0zm26.927 4.725a.503.503 0 00-.294.147L55.3 61.968l-9.422-9.24a.503.503 0 00-.86.357c0 .134.054.263.148.357l9.778 9.618a.501.501 0 00.712 0l27.49-26.943a.505.505 0 00-.397-.861h0z" fill="url(#paint1_linear)" stroke="url(#paint2_linear)" stroke-width="2.7"/><defs><linearGradient id="paint0_linear" x1="56.5" y1="0" x2="35.64" y2="118.375" gradientUnits="userSpaceOnUse"><stop stop-color="#50CFFA"/><stop offset=".999" stop-color="#52A2ED"/></linearGradient><linearGradient id="paint1_linear" x1="56.5" y1="30.531" x2="47.123" y2="85.231" gradientUnits="userSpaceOnUse"><stop stop-color="#50CFFA"/><stop offset=".999" stop-color="#52A2ED"/></linearGradient><linearGradient id="paint2_linear" x1="56.5" y1="30.531" x2="56.5" y2="82.663" gradientUnits="userSpaceOnUse"><stop stop-color="#50CFFA"/><stop offset="1" stop-color="#51A5EE"/></linearGradient></defs></svg>
